icon-themes/breeze_svg/cmd/lc_bulletsandnumberingdialog.svg

<svg viewBox="0 0 24 24" xmlns="http://www.w3.org/2000/svg"><path d="m5 4v1h1v2h-1v1h3v-1h-1v-2h1v-1zm-1 6v1h1v2h-1v1h5v-1h-1v-2h1v-1zm2 1h1v2h-1z" fill="#1d99f3"/><path d="m11 4v1h9v-1zm0 2v1h6v-1zm0 4v1h9v-1zm0 2v1h2v-1zm4.875 0v1h4.125v-1zm-4.96875 6a1 1 0 0 0 -.90625 1 1 1 0 0 0 1 1 1 1 0 0 0 1-1 1 1 0 0 0 -1-1 1 1 0 0 0 -.09375 0zm4 0a1 1 0 0 0 -.90625 1 1 1 0 0 0 1 1 1 1 0 0 0 1-1 1 1 0 0 0 -1-1 1 1 0 0 0 -.09375 0zm4 0a1 1 0 0 0 -.90625 1 1 1 0 0 0 1 1 1 1 0 0 0 1-1 1 1 0 0 0 -1-1 1 1 0 0 0 -.09375 0z" fill="#4d4d4d"/></svg>

<svg xmlns="http://www.w3.org/2000/svg" viewBox="0 0 24 24">
 <path 
     style="fill:#1d99f3" 
     d="M 5 4 L 5 5 L 6 5 L 6 7 L 5 7 L 5 8 L 8 8 L 8 7 L 7 7 L 7 5 L 8 5 L 8 4 L 5 4 z M 4 10 L 4 11 L 5 11 L 5 13 L 4 13 L 4 14 L 9 14 L 9 13 L 8 13 L 8 11 L 9 11 L 9 10 L 4 10 z M 6 11 L 7 11 L 7 13 L 6 13 L 6 11 z "
     />
 <path 
     style="fill:#4d4d4d" 
     d="M 11 4 L 11 5 L 20 5 L 20 4 L 11 4 z M 11 6 L 11 7 L 17 7 L 17 6 L 11 6 z M 11 10 L 11 11 L 20 11 L 20 10 L 11 10 z M 11 12 L 11 13 L 13 13 L 13 12 L 11 12 z M 15.875 12 L 15.875 13 L 20 13 L 20 12 L 15.875 12 z M 10.90625 18 A 1 1 0 0 0 10 19 A 1 1 0 0 0 11 20 A 1 1 0 0 0 12 19 A 1 1 0 0 0 11 18 A 1 1 0 0 0 10.90625 18 z M 14.90625 18 A 1 1 0 0 0 14 19 A 1 1 0 0 0 15 20 A 1 1 0 0 0 16 19 A 1 1 0 0 0 15 18 A 1 1 0 0 0 14.90625 18 z M 18.90625 18 A 1 1 0 0 0 18 19 A 1 1 0 0 0 19 20 A 1 1 0 0 0 20 19 A 1 1 0 0 0 19 18 A 1 1 0 0 0 18.90625 18 z "
     />
 </svg>
